X: 214
T: No_70_Alligator_Dance_Song_(f).krn
N: Derived from No_70_Alligator_Dance_Song_(f).krn
%%abc-version 2.0
%%abcx-abcm2ps-target-version 5.9.1 (29 Sep 2008)
%%abc-creator hum2abc beta
%%abcx-conversion-date 2019/03/15 08:38:45
%%humdrum-veritas 3556702581
%%humdrum-veritas-data 1767477389
%%linebreak <none>
%%barnumbers 0
L: 1/8
M: 3/4
K: G clef=bass
[K:clef=bass][M:3/4]B,B,B,2!fermata!B,3/C/ [I:setbarnb 2]||  
[M:2/4]B,3/A,/G,2 ||  
[M:3/4]B,B,B,2!fermata!A,3/G,/ | 
G,3/E,/E,2E, z | 
E,E,E,2E,3/G,/ ||  
[M:2/4]G,3/E,/E,2 ||  
[M:3/4]B,B,B,2!fermata!A,3/G,/ | 
G,3/E,/E,2E, z | 
E,E,E,2E,3/G,/ ||  
[M:2/4]G,3/E,/E,2 :|]  
B,2z2 | 
B,4



